X: 20431
T: SALAMANCA'S HORNPIPE
C:
%R: hornpipe, reel
B: Elias Howe "The Musician's Companion" 1843 p.43 #1
S: http://imslp.org/wiki/The_Musician's_Companion_(Howe,_Elias)
Z: 2015 John Chambers <jc:trillian.mit.edu>
M: C|
L: 1/8
K: D
% - - - - - - - - - - - - - - - - - - - - - - - - -
AG |\
FDFA d2df | edcB A2dc | BAGF E2AG | FGEF D2AG |\
FDFA d2df | edcB A2AG | FA dg fdec | d2d2 d2 :|
|: cd |\
eAAc e2ea | fddf a3a | bagf gfed | cdec A2AG |\
FDFA d2df | edcB A2AG | FA dg fdec | d2d2 d2 :|
% - - - - - - - - - - - - - - - - - - - - - - - - -

%%sep 1 1 500

